static/images/logo-5.svg

<svg width="184" height="50" viewBox="0 0 184 50" fill="none" xmlns="http://www.w3.org/2000/svg">
<g clip-path="url(#clip0)">
<path d="M109.185 21.7547H114.045V39.1131H109.185V36.8565C107.449 39.4603 105.192 39.6339 103.804 39.6339C98.4226 39.6339 94.9509 35.4679 94.9509 30.4339C94.9509 25.2264 98.4226 21.2339 103.457 21.2339C104.845 21.2339 107.449 21.4075 109.011 24.0113V21.7547H109.185ZM100.158 30.4339C100.158 33.2113 102.068 35.2943 105.019 35.2943C107.796 35.2943 109.879 33.2113 109.879 30.4339C109.879 27.6565 107.97 25.5735 105.019 25.5735C102.241 25.5735 100.158 27.6565 100.158 30.4339ZM123.592 25.9207V39.1131H118.732V25.9207H116.823V21.7547H118.732V15.8528H123.592V21.7547H126.891V25.9207H123.592ZM138.347 25.9207C137.132 24.8792 136.091 24.7056 135.57 24.7056C134.355 24.7056 133.66 25.2264 133.66 26.0943C133.66 26.615 133.834 27.1358 135.223 27.6565L136.438 28.0037C137.826 28.5245 139.909 29.0452 140.777 30.4339C141.298 31.1282 141.645 32.1698 141.645 33.3848C141.645 34.9471 141.125 36.5094 139.736 37.7245C138.347 38.9396 136.611 39.6339 134.528 39.6339C130.883 39.6339 128.974 37.8981 127.758 36.683L130.362 33.732C131.404 34.7735 132.792 35.815 134.181 35.815C135.57 35.815 136.611 35.1207 136.611 33.9056C136.611 32.8641 135.743 32.3433 135.049 32.1698L134.008 31.8226C132.792 31.3018 131.404 30.7811 130.362 29.7396C129.494 28.8716 128.974 27.8301 128.974 26.4414C128.974 24.7056 129.841 23.3169 130.709 22.449C132.098 21.4075 133.834 21.2339 135.223 21.2339C136.438 21.2339 138.521 21.4075 140.777 23.1433L138.347 25.9207V25.9207ZM148.936 24.0113C150.672 21.5811 153.102 21.2339 154.491 21.2339C159.525 21.2339 162.996 25.2264 162.996 30.4339C162.996 35.6414 159.525 39.6339 154.317 39.6339C153.275 39.6339 150.672 39.4603 148.762 36.8565V39.1131H144.075V9.95088H148.936V24.0113V24.0113ZM148.415 30.4339C148.415 33.2113 150.325 35.2943 153.275 35.2943C156.053 35.2943 158.136 33.2113 158.136 30.4339C158.136 27.6565 156.226 25.5735 153.275 25.5735C150.325 25.5735 148.415 27.6565 148.415 30.4339ZM170.981 36.5094L162.649 21.7547H168.377L173.758 31.649L178.619 21.7547H184.174L170.287 48.3131H164.732L170.981 36.5094ZM93.7358 24.7056H81.5849V29.566H88.0075C86.966 32.8641 84.5358 35.1207 80.0226 35.1207C74.9887 35.1207 71.3434 30.9547 71.3434 25.9207C71.3434 20.8867 74.8151 16.5471 79.849 16.5471C82.6264 16.5471 85.4038 17.9358 87.1396 20.1924L91.1321 17.5886C88.5283 13.9433 84.3622 11.8603 79.849 11.8603C72.2113 11.8603 65.9622 18.1094 65.9622 25.9207C65.9622 33.732 71.8641 39.9811 79.849 39.9811C87.8339 39.9811 93.7358 33.732 93.7358 25.9207C93.9094 25.3999 93.7358 25.0528 93.7358 24.7056V24.7056Z" fill="white"/>
<path d="M24.3019 0.924561C10.9358 0.924561 0 11.8604 0 25.2264C0 38.5925 10.9358 49.5283 24.3019 49.5283C37.6679 49.5283 48.6038 38.5925 48.6038 25.2264C48.6038 11.8604 37.6679 0.924561 24.3019 0.924561ZM10.7623 38.7661C7.11698 35.1208 5.20755 30.2604 5.20755 25.5736L24.1283 44.3208C19.2679 44.1472 14.4075 42.4114 10.7623 38.7661ZM28.4679 43.8L5.7283 21.0604C7.63774 12.5547 15.2755 6.13211 24.3019 6.13211C30.7245 6.13211 36.2792 9.25664 39.7509 13.9434L37.1472 16.2C34.1962 12.2076 29.5094 9.60381 24.3019 9.60381C17.5321 9.60381 11.8038 13.9434 9.54717 20.0189L29.5094 39.9812C34.5434 38.2453 38.3623 33.9057 39.5774 28.6981H31.2453V25.2264H43.3962C43.3962 34.2529 36.9736 41.8906 28.4679 43.8Z" fill="white"/>
</g>
<defs>
<clipPath id="clip0">
<rect y="0.924561" width="184" height="48.6038" fill="white"/>
</clipPath>
</defs>
</svg>

<svg width="184" height="50" viewBox="0 0 184 50" fill="none" xmlns="http://www.w3.org/2000/svg"><g clip-path="url(#clip0)" fill="#fff"><path d="M109.185 21.755h4.86v17.358h-4.86v-2.257c-1.736 2.604-3.993 2.778-5.381 2.778-5.381 0-8.853-4.166-8.853-9.2 0-5.208 3.472-9.2 8.506-9.2 1.388 0 3.992.173 5.554 2.777v-2.256h.174zm-9.027 8.679c0 2.777 1.91 4.86 4.861 4.86 2.777 0 4.86-2.083 4.86-4.86s-1.909-4.86-4.86-4.86c-2.778 0-4.861 2.082-4.861 4.86zm23.434-4.513v13.192h-4.86V25.921h-1.909v-4.166h1.909v-5.902h4.86v5.902h3.299v4.166h-3.299zm14.755 0c-1.215-1.042-2.256-1.215-2.777-1.215-1.215 0-1.91.52-1.91 1.388 0 .521.174 1.042 1.563 1.563l1.215.347c1.388.52 3.471 1.041 4.339 2.43.521.694.868 1.736.868 2.95 0 1.563-.52 3.125-1.909 4.34-1.389 1.216-3.125 1.91-5.208 1.91-3.645 0-5.554-1.736-6.77-2.951l2.604-2.951c1.042 1.041 2.43 2.083 3.819 2.083 1.389 0 2.43-.694 2.43-1.91 0-1.04-.868-1.562-1.562-1.735l-1.041-.347c-1.216-.521-2.604-1.042-3.646-2.083-.868-.868-1.388-1.91-1.388-3.299 0-1.735.867-3.124 1.735-3.992 1.389-1.042 3.125-1.215 4.514-1.215 1.215 0 3.298.173 5.554 1.91l-2.43 2.777zm10.589-1.91c1.736-2.43 4.166-2.777 5.555-2.777 5.034 0 8.505 3.992 8.505 9.2 0 5.207-3.471 9.2-8.679 9.2-1.042 0-3.645-.174-5.555-2.778v2.257h-4.687V9.951h4.861v14.06zm-.521 6.423c0 2.777 1.91 4.86 4.86 4.86 2.778 0 4.861-2.083 4.861-4.86s-1.91-4.86-4.861-4.86c-2.95 0-4.86 2.082-4.86 4.86zm22.566 6.075l-8.332-14.754h5.728l5.381 9.894 4.861-9.894h5.555l-13.887 26.558h-5.555l6.249-11.804zM93.736 24.706H81.585v4.86h6.422c-1.041 3.298-3.471 5.555-7.984 5.555-5.034 0-8.68-4.166-8.68-9.2 0-5.034 3.472-9.374 8.506-9.374 2.777 0 5.555 1.389 7.29 3.645l3.993-2.603c-2.604-3.646-6.77-5.729-11.283-5.729-7.638 0-13.887 6.25-13.887 14.06 0 7.812 5.902 14.061 13.887 14.061s13.887-6.249 13.887-14.06c.173-.521 0-.868 0-1.215zM24.302.925C10.936.925 0 11.86 0 25.226c0 13.367 10.936 24.302 24.302 24.302s24.302-10.935 24.302-24.302C48.604 11.86 37.668.925 24.302.925zm-13.54 37.841c-3.645-3.645-5.554-8.506-5.554-13.192l18.92 18.747c-4.86-.174-9.72-1.91-13.366-5.555zM28.468 43.8L5.728 21.06c1.91-8.505 9.547-14.928 18.574-14.928 6.422 0 11.977 3.125 15.449 7.811L37.147 16.2c-2.95-3.992-7.638-6.596-12.845-6.596-6.77 0-12.498 4.34-14.755 10.415L29.51 39.98c5.034-1.736 8.853-6.075 10.068-11.283h-8.332v-3.472h12.151c0 9.027-6.422 16.665-14.928 18.574z"/></g><defs><clipPath id="clip0"><path fill="#fff" d="M0 .925h184v48.604H0z"/></clipPath></defs></svg>
